X: 1
T:The Minimalist Bucks Of Oranmore
R:Reel
S:Conor Keane (accordian)
D:Clare FM broadcast.
M:4/4
Z:Bernie Stocks
K:D
|: ADFD A3B | AGDE FEE2 | ADFD A3B | ABdf efdB :|
|: a2fd efdB | ABdf eB~B2 | a2fd efdB |1 ABdf e3f :|2 ABdf e2dB ||
